dist/images/icons/case.svg

<svg width="16" height="16" viewBox="0 0 16 16" fill="none" xmlns="http://www.w3.org/2000/svg">
<path opacity="0.36" d="M8 9.50021C5.89362 9.50352 3.82382 8.94977 2.00049 7.89511V13.0002C2.00049 13.0659 2.01342 13.1309 2.03855 13.1916C2.06367 13.2522 2.1005 13.3073 2.14693 13.3538C2.19336 13.4002 2.24848 13.437 2.30915 13.4622C2.36981 13.4873 2.43483 13.5002 2.50049 13.5002H13.5005C13.5661 13.5002 13.6312 13.4873 13.6918 13.4622C13.7525 13.437 13.8076 13.4002 13.854 13.3538C13.9005 13.3073 13.9373 13.2522 13.9624 13.1916C13.9876 13.1309 14.0005 13.0659 14.0005 13.0002V7.89453C12.1769 8.94957 10.1068 9.50353 8 9.50021Z" fill="#4D5A65"/>
<path fill-rule="evenodd" clip-rule="evenodd" d="M1.50049 5C1.50049 4.44772 1.9482 4 2.50049 4H13.5005C14.0528 4 14.5005 4.44772 14.5005 5V13C14.5005 13.5523 14.0528 14 13.5005 14H2.50049C1.9482 14 1.50049 13.5523 1.50049 13V5ZM13.5005 5H2.50049V13H13.5005V5Z" fill="#112E49"/>
<path fill-rule="evenodd" clip-rule="evenodd" d="M5.43934 2.43934C5.72064 2.15804 6.10218 2 6.5 2H9.5C9.89782 2 10.2794 2.15804 10.5607 2.43934C10.842 2.72064 11 3.10217 11 3.5V4.5C11 4.77614 10.7761 5 10.5 5C10.2239 5 10 4.77614 10 4.5V3.5C10 3.36739 9.94732 3.24021 9.85355 3.14645C9.75979 3.05268 9.63261 3 9.5 3H6.5C6.36739 3 6.24022 3.05268 6.14645 3.14645C6.05268 3.24021 6 3.36739 6 3.5V4.5C6 4.77614 5.77614 5 5.5 5C5.22386 5 5 4.77614 5 4.5V3.5C5 3.10217 5.15804 2.72064 5.43934 2.43934Z" fill="#112E49"/>
<path fill-rule="evenodd" clip-rule="evenodd" d="M14.4335 7.64422C14.5717 7.88324 14.4901 8.18911 14.2511 8.3274C12.3514 9.42647 10.1948 10.0036 8.00016 10.0003C5.80585 10.0036 3.64967 9.42666 1.75022 8.32795C1.51119 8.18969 1.4295 7.88382 1.56776 7.64479C1.70603 7.40576 2.01189 7.32407 2.25092 7.46233C3.99795 8.47288 5.98114 9.00347 7.99938 9.00029H8.00095C10.0195 9.00347 12.003 8.4727 13.7503 7.46183C13.9893 7.32354 14.2952 7.4052 14.4335 7.64422Z" fill="#112E49"/>
<path fill-rule="evenodd" clip-rule="evenodd" d="M6.75 7.5C6.75 7.22386 6.97386 7 7.25 7H8.75C9.02614 7 9.25 7.22386 9.25 7.5C9.25 7.77614 9.02614 8 8.75 8H7.25C6.97386 8 6.75 7.77614 6.75 7.5Z" fill="#112E49"/>
</svg>

<svg width="16" height="16" fill="none" xmlns="http://www.w3.org/2000/svg"><path opacity=".36" d="M8 9.5a11.945 11.945 0 01-6-1.605V13a.5.5 0 00.5.5h11a.5.5 0 00.5-.5V7.895A11.945 11.945 0 018 9.5z" fill="#4D5A65"/><path fill-rule="evenodd" clip-rule="evenodd" d="M1.5 5a1 1 0 011-1h11a1 1 0 011 1v8a1 1 0 01-1 1h-11a1 1 0 01-1-1V5zm12 0h-11v8h11V5z" fill="#112E49"/><path fill-rule="evenodd" clip-rule="evenodd" d="M5.44 2.44A1.5 1.5 0 016.5 2h3A1.5 1.5 0 0111 3.5v1a.5.5 0 01-1 0v-1a.5.5 0 00-.5-.5h-3a.5.5 0 00-.5.5v1a.5.5 0 01-1 0v-1c0-.398.158-.78.44-1.06zm8.994 5.204a.5.5 0 01-.183.683A12.445 12.445 0 018.001 10a12.445 12.445 0 01-6.25-1.672.5.5 0 01.5-.866A11.445 11.445 0 007.999 9h.002a11.445 11.445 0 005.75-1.538.5.5 0 01.683.182z" fill="#112E49"/><path fill-rule="evenodd" clip-rule="evenodd" d="M6.75 7.5a.5.5 0 01.5-.5h1.5a.5.5 0 010 1h-1.5a.5.5 0 01-.5-.5z" fill="#112E49"/></svg>
